src/assets/icons/hotel-itinerary-greyed.svg

<svg width="24" height="24" viewBox="0 0 24 24" fill="none" xmlns="http://www.w3.org/2000/svg">
  <rect width="24" height="24" rx="12" fill="#DBDCE1"/>
  <rect x="2.3999" y="2.3999" width="19.2" height="19.2" rx="9.6" fill="white" stroke="#BFBFBF"/>
  <path
    d="M9.45501 12.7996C10.3001 12.7996 10.9823 12.0849 10.9823 11.1996C10.9823 10.3143 10.3001 9.59961 9.45501 9.59961C8.60992 9.59961 7.92773 10.3143 7.92773 11.1996C7.92773 12.0849 8.60992 12.7996 9.45501 12.7996Z"
    fill="#BFBFBF"/>
  <path
    d="M15.5635 9.06667H11.8908C11.6699 9.06667 11.4908 9.24575 11.4908 9.46667V12.9333C11.4908 13.1542 11.3117 13.3333 11.0908 13.3333H7.81808C7.59717 13.3333 7.41808 13.1542 7.41808 12.9333V8.4C7.41808 8.17909 7.239 8 7.01808 8H6.7999C6.57899 8 6.3999 8.17909 6.3999 8.4V15.6C6.3999 15.8209 6.57899 16 6.7999 16H7.01808C7.239 16 7.41808 15.8209 7.41808 15.6V14.8C7.41808 14.5791 7.59717 14.4 7.81808 14.4H16.1817C16.4026 14.4 16.5817 14.5791 16.5817 14.8V15.6C16.5817 15.8209 16.7608 16 16.9817 16H17.1999C17.4208 16 17.5999 15.8209 17.5999 15.6V11.2C17.5999 10.0213 16.6886 9.06667 15.5635 9.06667Z"
    fill="#BFBFBF"/>
</svg>

<svg xmlns="http://www.w3.org/2000/svg" width="24" height="24" fill="none" viewBox="0 0 24 24">
  <rect width="24" height="24" fill="#DBDCE1" rx="12"/>
  <rect width="19.2" height="19.2" x="2.4" y="2.4" fill="#fff" stroke="#BFBFBF" rx="9.6"/>
  <path fill="#BFBFBF" d="M9.455 12.8c.845 0 1.527-.715 1.527-1.6 0-.886-.682-1.6-1.527-1.6-.845 0-1.527.714-1.527 1.6 0 .885.682 1.6 1.527 1.6Z"/>
  <path fill="#BFBFBF" d="M15.563 9.067h-3.672a.4.4 0 0 0-.4.4v3.466a.4.4 0 0 1-.4.4H7.818a.4.4 0 0 1-.4-.4V8.4a.4.4 0 0 0-.4-.4H6.8a.4.4 0 0 0-.4.4v7.2c0 .22.179.4.4.4h.218a.4.4 0 0 0 .4-.4v-.8c0-.22.18-.4.4-.4h8.364c.22 0 .4.18.4.4v.8c0 .22.179.4.4.4h.218a.4.4 0 0 0 .4-.4v-4.4c0-1.179-.911-2.133-2.037-2.133Z"/>
</svg>
